app/themes/uggwc_pro/assets/images/thema/Romanistik.svg

<svg width="16" height="16" viewBox="0 0 16 16" fill="none" xmlns="http://www.w3.org/2000/svg">
<path d="M1.32222 9.34448L6.34167 14.0306C6.55 14.225 6.825 14.3334 7.11111 14.3334C7.39722 14.3334 7.67222 14.225 7.88056 14.0306L7.95278 13.9639C7.42222 13.1834 7.11111 12.2389 7.11111 11.2223C7.11111 8.52226 9.3 6.33337 12 6.33337C12.7861 6.33337 13.5278 6.51948 14.1861 6.84726C14.2111 6.66671 14.2222 6.48615 14.2222 6.30282V6.14171C14.2222 4.20004 12.8194 2.54448 10.9056 2.22504C9.63889 2.01393 8.35 2.42782 7.44444 3.33337L7.11111 3.66671L6.77778 3.33337C5.87222 2.42782 4.58333 2.01393 3.31667 2.22504C1.40278 2.54448 0 4.20004 0 6.14171V6.30282C0 7.4556 0.477778 8.55837 1.32222 9.34448ZM16 11.2223C16 9.01393 14.2083 7.22226 12 7.22226C9.79167 7.22226 8 9.01393 8 11.2223C8 13.4306 9.79167 15.2223 12 15.2223C14.2083 15.2223 16 13.4306 16 11.2223ZM13.8694 10.0195C14.0417 10.1917 14.0417 10.475 13.8694 10.6473L11.8694 12.6473C11.6972 12.8195 11.4139 12.8195 11.2417 12.6473L10.1306 11.5362C9.95833 11.3639 9.95833 11.0806 10.1306 10.9084C10.3028 10.7362 10.5861 10.7362 10.7583 10.9084L11.5556 11.7056L13.2417 10.0195C13.4139 9.84726 13.6972 9.84726 13.8694 10.0195Z" fill="#6E6CFF"/>
</svg>

<svg width="16" height="16" fill="none" xmlns="http://www.w3.org/2000/svg"><path d="m1.322 9.344 5.02 4.687a1.128 1.128 0 0 0 1.539 0l.072-.067a4.889 4.889 0 0 1 6.233-7.117c.025-.18.036-.36.036-.544v-.161a3.97 3.97 0 0 0-6.778-2.809l-.333.334-.333-.334A3.971 3.971 0 0 0 0 6.142v.16c0 1.154.478 2.256 1.322 3.042zM16 11.222a4.001 4.001 0 0 0-8 0 4.001 4.001 0 0 0 8 0zm-2.13-1.202a.446.446 0 0 1 0 .627l-2 2a.446.446 0 0 1-.628 0l-1.111-1.11a.446.446 0 0 1 0-.629.446.446 0 0 1 .627 0l.798.798 1.686-1.686a.446.446 0 0 1 .627 0z" fill="#6E6CFF"/></svg>
